X: 99
T: THE FAIR AT DUNGARVAN
B: O'Neill's 99
M: 3/4
L: 1/4
Z: Transcribed by John Chambers <jc@trillian.mit.edu>
N: "Moderate"
N: "Collected by F.O'Neill"
K:G
(B/A/) \
| GED | GBd | e2e | dBA \
| GBA | G2G | G3- | G2 ||
|| B \
| (d2B) | def | g2g | fed \
| efe | edB | d3- | d2B |
| (d2B) | def | g2a | age \
| edB | BAG | A3- | A2(B/A/) |
| GED | GBd | e2e | dBA \
| GBA | G2G | G3- | G2 ||


